X: 1
T: the Balkan Hills
R: shottish, hornpipe or reel
N: Bain 14, BSFC II-46
Z: 1997 by John Chambers <jc:trillian.mit.edu>
H: # This g is sometimes played sharp.
M: 2/4
L: 1/16
K: D
ag \
| "D"f2fe d2A2 | "G"BGdB "D"A2de | f2fa gfed | "A7"f2e2 e2ag \
| "D"f2fe d2A2 | "G"BGdB "D"A2de | fa"#"ga "A7"gecA | "D"d6 :|
|: fg \
| "D"adfa f2ed | "G"BGdB "D"A2fg | "D"adfa gfed | "A7"f2e2 e2fg \
| "D"adfa f2ed | "G"BGdB "D"A2de | fa"#"ga "A7"gecA | "D"d6 :|
|: A2 \
| "D"d3e f2ed | "G"BGdB "D"A2de | f2fa gfed | "A7"f2e2 e2A2 \
| "D"d3e f2ed | "G"BGdB "D"A2de | fa"#"ga "A7"gecA | "D"d6 :|
|: fg \
| "D"adfa fdfa | fdfa f3g | "D"adfa gfed | "A7"f2e2 e2fg \
| "D"adfa f2ed | "G"BGdB "D"A2de | fa"#"ga "A7"gecA | "D"d6 :|
